packages/components/src/reaction_selection_menu/images/thankyou.svg

<?xml version="1.0" encoding="UTF-8"?>
<svg width="40px" height="40px" viewBox="0 0 40 40" version="1.1" xmlns="http://www.w3.org/2000/svg" xmlns:xlink="http://www.w3.org/1999/xlink">
    <title>02 Icons/Reactions/Thanks/40x40</title>
    <g id="02-Icons/Reactions/Thanks/40x40" stroke="none" stroke-width="1" fill="none" fill-rule="evenodd">
        <g>
            <circle id="Oval" fill="#F2F4F4" fill-rule="nonzero" cx="20" cy="20" r="20"></circle>
            <path d="M14.1224,17.5329 L14.7763,17.5329 L18.9521,11.4815 L20.1221,5.5421 C20.9143,4.7445 23.4026,6.135 23.4026,8.6003 C23.3130331,10.7548088 23.0582854,12.8992695 22.6406,15.0148 L30.0224,15.0148 C31.11326,15.0179305 31.9968143,15.9014402 32,16.9923 L32,16.9923 C31.9969244,18.083199 31.1133987,18.9668141 30.0225,18.97 L29.8181,18.97 C30.9015555,18.9906032 31.774942,19.8639456 31.7956,20.9474 L31.7956,20.9474 C31.7924146,22.0382209 30.9089209,22.9217146 29.8181,22.9249 L28.9511,22.9249 C30.0418819,22.9281403 30.9253149,23.8116179 30.9285,24.9024 L30.9285,24.9024 C30.9254244,25.9932438 30.0419435,26.8768141 28.9511,26.88 L28.1356,26.88 C29.2263819,26.8832403 30.1098149,27.7667179 30.113,28.8575 L30.113,28.8575 C30.1098149,29.9482821 29.2263819,30.8317597 28.1356,30.835 L17.982,30.835 L14.122,29.0083" id="Path" fill="#F6F8E5" fill-rule="nonzero"></path>
            <path d="M28.72,26.9651 L28.73,26.9651 C29.3887862,27.1752844 29.8904619,27.7135322 30.0538477,28.3854562 C30.2172334,29.0573802 30.0187199,29.7658868 29.53,30.2551 C29.162527,30.626024 28.6621311,30.8348223 28.14,30.8351 L17.98,30.8351 L14.12,29.0051 L14.12,21.1551 L27.59,26.8751 L28.72,26.9651 Z" id="Path" fill="#E6EEB3" fill-rule="nonzero"></path>
            <path d="M13.73,15.5551 L8.39,15.5551 C8.17281761,15.560106 7.99950696,15.7378605 7.99999895,15.9551 L7.99999895,30.5251 C8.00378971,30.7389016 8.17619837,30.9113103 8.39,30.9151 L13.73,30.9151 C13.9438016,30.9113103 14.1162103,30.7389016 14.1200008,30.5251 L14.1200008,15.955 C14.1204385,15.7377993 13.9471434,15.5601052 13.73,15.5551 L13.73,15.5551 Z" id="Path" fill="#B1C906" fill-rule="nonzero"></path>
            <rect id="Rectangle" stroke="#61746E" stroke-width="1.5" stroke-linecap="round" stroke-linejoin="round" x="8" y="15.5588" width="6.1224" height="15.3588" rx="0.3947"></rect>
            <path d="M14.1224,17.5329 L14.7763,17.5329 L18.9521,11.4815 L20.1221,5.5421 C20.9143,4.7445 23.4026,6.135 23.4026,8.6003 C23.3130331,10.7548088 23.0582854,12.8992695 22.6406,15.0148 L30.0224,15.0148 C31.11326,15.0179305 31.9968143,15.9014402 32,16.9923 L32,16.9923 C31.9969244,18.083199 31.1133987,18.9668141 30.0225,18.97 L29.8181,18.97 C30.9015555,18.9906032 31.774942,19.8639456 31.7956,20.9474 L31.7956,20.9474 C31.7924146,22.0382209 30.9089209,22.9217146 29.8181,22.9249 L28.9511,22.9249 C30.0418819,22.9281403 30.9253149,23.8116179 30.9285,24.9024 L30.9285,24.9024 C30.9254244,25.9932438 30.0419435,26.8768141 28.9511,26.88 L28.1356,26.88 C29.2263819,26.8832403 30.1098149,27.7667179 30.113,28.8575 L30.113,28.8575 C30.1098149,29.9482821 29.2263819,30.8317597 28.1356,30.835 L17.982,30.835 L14.122,29.0083" id="Path" stroke="#61746E" stroke-width="1.5" stroke-linecap="round" stroke-linejoin="round"></path>
        </g>
    </g>
</svg>

<svg xmlns="http://www.w3.org/2000/svg" width="40" height="40" viewBox="0 0 40 40">
    <g fill="none" fill-rule="evenodd">
        <g>
            <g transform="translate(-16 -76) translate(16 76)">
                <circle cx="20" cy="20" r="20" fill="#F2F4F4" fill-rule="nonzero"/>
                <path fill="#F6F8E5" fill-rule="nonzero" d="M14.122 17.533h.654l4.176-6.052 1.17-5.939c.792-.797 3.28.593 3.28 3.058-.089 2.155-.344 4.3-.761 6.415h7.381c1.091.003 1.975.886 1.978 1.977-.003 1.091-.887 1.975-1.977 1.978h-.205c1.084.02 1.957.894 1.978 1.977-.004 1.091-.887 1.975-1.978 1.978h-.867c1.09.003 1.974.887 1.977 1.977-.003 1.091-.886 1.975-1.977 1.978h-.815c1.09.003 1.974.887 1.977 1.978-.003 1.09-.887 1.974-1.977 1.977H17.982l-3.86-1.827"/>
                <path fill="#E6EEB3" fill-rule="nonzero" d="M28.72 26.965h.01c.659.21 1.16.749 1.324 1.42.163.672-.035 1.38-.524 1.87-.367.371-.868.58-1.39.58H17.98l-3.86-1.83v-7.85l13.47 5.72 1.13.09z"/>
                <path fill="#B1C906" fill-rule="nonzero" d="M13.73 15.555H8.39c-.217.005-.39.183-.39.4v14.57c.004.214.176.386.39.39h5.34c.214-.004.386-.176.39-.39v-14.57c0-.217-.173-.395-.39-.4z"/>
                <rect width="6.122" height="15.359" x="8" y="15.559" stroke="#757575" stroke-linecap="round" stroke-linejoin="round" stroke-width="1.5" rx=".395"/>
                <path stroke="#757575" stroke-linecap="round" stroke-linejoin="round" stroke-width="1.5" d="M14.122 17.533h.654l4.176-6.052 1.17-5.939c.792-.797 3.28.593 3.28 3.058-.089 2.155-.344 4.3-.761 6.415h7.381c1.091.003 1.975.886 1.978 1.977h0c-.003 1.091-.887 1.975-1.977 1.978h-.205c1.084.02 1.957.894 1.978 1.977h0c-.004 1.091-.887 1.975-1.978 1.978h-.867c1.09.003 1.974.887 1.977 1.977h0c-.003 1.091-.886 1.975-1.977 1.978h-.815c1.09.003 1.974.887 1.977 1.978h0c-.003 1.09-.887 1.974-1.977 1.977H17.982l-3.86-1.827"/>
            </g>
        </g>
    </g>
</svg>
